core/assets/icons/stars.half_filled.svg

<svg width="24" height="24" viewBox="0 0 24 24" xmlns="http://www.w3.org/2000/svg"><g id="star=half-filled"><path id="Vector" d="M11.9999 15.968L16.2469 18.345L15.2979 13.572L18.8709 10.267L14.0379 9.694L11.9999 5.275V15.968ZM11.9999 18.26L4.94691 22.208L6.52191 14.28L0.586914 8.792L8.61391 7.84L11.9999 0.5L15.3859 7.84L23.4129 8.792L17.4779 14.28L19.0529 22.208L11.9999 18.26Z"/></g></svg>

<svg xmlns="http://www.w3.org/2000/svg" width="24" height="24" fill="none"><path fill="#191C22" d="m12 15.968 4.247 2.377-.95-4.773 3.574-3.305-4.833-.573L12 5.275v10.693Zm0 2.292-7.053 3.948 1.575-7.928L.587 8.792l8.027-.952L12 .5l3.386 7.34 8.027.952-5.935 5.488 1.575 7.928L12 18.26Z"/></svg>
